X:1
T:Title
%%score { 1 | 2 }
L:1/8
Q:1/4=114
M:6/4
K:C
V:1 treble nm="Grand Piano"
V:2 bass 
V:1
 [EG]2 [EA]2 [Ec]2 [EA]4 [G,CE]2 | [CEG]4 [B,FG]2 [CEG]6 | [EG]2 [EA]2 [Ec]2 [EA]4 E2 | F12 | %4
w: J.~Lincoln~Hall * * * *||||
 F2 F2 F2 E4 D2 | E4 [EG]2 [Ec]6 | [^FA]2 [FA]2 [FA]2 [Fd]4 [FA]2 |[M:9/8] d8- d | %8
w: ||||
[M:3/4] G2 ^F2 =F2 |[M:6/4] E2 [EG]4 [FA]2 [Ac]4 | [Ge]2 [Ec]4 G2 ^F2 =F2 | %11
w: |||
 E2 [Ec]4 [^FA]2 [FB]2 [Fc]2 | [Fd]12 | [Ge]2 [Ge]2 [Ge]2 [^Gd]2 [Gd]2 [Gd]2 | %14
w: |||
 c2 c2 c2 [Ac]2 [GB]2 A2 | G2 c4 B2 c2 d2 | [Ec]12 |] %17
w: |||
V:2
 [C,C]2 [C,C]2 [C,C]2 [C,C]4 C,2 | C,4 D,2 E,4 C,2 | [C,C]2 [C,C]2 [C,C]2 [C,C]4 [C,G,C]2 | %3
 [G,B,D]12 | [G,B,D]2 [G,B,D]2 [G,B,D]2 [G,C]4 [G,B,]2 | [C,G,C]4 [C,C]2 [C,C]6 | %6
 [D,C]2 [D,C]2 [D,C]2 [D,A,]4 [D,C]2 |[M:9/8][K:treble] [G,B,F]8- [G,B,F] | %8
[M:3/4] [G,E]2 [G,A,_E]2 [G,B,D]2 |[M:6/4][K:bass] [C,C]2 [C,C]4 [F,C]2 [F,C]4 | %10
 [C,C]2 [C,C]4 [G,E]2 [G,A,_E]2 [G,B,D]2 | [C,G,C]2 [C,C]4 [D,C]2 [D,B,]2 [D,A,]2 | [G,B,]12 | %13
 [C,C]2 [C,C]2 [C,C]2 [E,B,]2 [E,B,]2 [E,B,]2 | %14
 [A,CA]2 [A,CA]2 [A,CA]2[K:bass] [F,F]2 [F,C]2[K:treble] [F,CF]2 | %15
 [G,CE]2 [G,CE]4 [G,DF]2 [G,CE]2 [G,B,F]2 | [C,G,]12 |] %17

